X:7324
T:Humours Of Castlefinn
R:Reel
S:Mary Macnamara, PJ % Martin Hayes
H:
N:
D:
Z:Adrian Scahill
M:4/4
L:1/8
K:D
BEE2 BEFB|ADD2 FGAd|BEE2 BEAF|GBAF EFGA:||\
B2eB egfe|defg afed|B2eB efgb|agfa geeA|\
B2eB egfe|defg afdf|efga bagf|e2fd e2dc||
